X: 534
T: Duck River
B: jims roots
M:4/4
L:1/8
R: reel
Q: 1/4=100
K:Dmaj
V:1 
|:xA,B, | "D"D2 DD EDDD|F2 A2 A2 Ad|"G"B2 Ad B2 AG |"D"F2 FF "A"EDB,A,|
"D"A,B,DD EDDD|F2 A2 A2 Ad|"G"B2 Ad B2 AG|"D"FD"A"EC "D"D2:|
|:"D"faaa a2 ag|fddd d2 dd|"G"b2 bb b2 ba|"A"geee e2 ee|
"D"faaa a2 ag|fddd d2 AB|d2 AB d2 AG|"D"FD"A"EC "D"D2 D2:|
% abcbook-tune_id 6298c2456613dd45909c64c4


% abcbook-boost 0
% abcbook-tablature 
% abcbook-transpose 
% abcbook-lastupdated 1654178374077
% abcbook-soundfonts 
% abcbook-repeats 1
% gentzen
% <a href="http://thesession.org/tunes/7066#setting7066" rel="nofollow">http://thesession.org/tunes/7066#setting7066</a>

